assets/svg/app/arrows-change.svg

<svg width="16" height="16" viewBox="0 0 16 16" fill="none" xmlns="http://www.w3.org/2000/svg">
<path fill-rule="evenodd" clip-rule="evenodd" d="M11.3333 4.66659H4.66667V7.33325H3.33333V3.33325H11.3333V1.33325L14 3.99992L11.3333 6.66659V4.66659ZM4.66667 11.3333H11.3333V8.66659H12.6667V12.6666H4.66667V14.6666L2 11.9999L4.66667 9.33325V11.3333Z" fill="#828295"/>
</svg>

<svg width="16" height="16" fill="none" xmlns="http://www.w3.org/2000/svg">
    <path fill-rule="evenodd" clip-rule="evenodd" d="M11.333 4.667H4.667v2.666H3.333v-4h8v-2L14 4l-2.667 2.667v-2Zm-6.666 6.666h6.666V8.667h1.334v4h-8v2L2 12l2.667-2.667v2Z" fill="#828295"/>
</svg>
